src/asset/logotype.svg

<svg width="96" height="16" viewBox="0 0 96 16" fill="none" xmlns="http://www.w3.org/2000/svg">
<path d="M5.69108 4.5256C5.69108 5.12 5.48148 5.5736 5.06268 5.8856C4.64348 6.198 4.03028 6.354 3.22268 6.354H1.64868C1.41708 6.354 1.24308 6.142 1.28868 5.9148L1.75908 3.564C1.79348 3.3924 1.94428 3.2688 2.11908 3.2688H3.79388C5.05868 3.2688 5.69108 3.688 5.69108 4.5256ZM4.70828 9.8172C4.37308 9.5964 3.91588 9.4856 3.33668 9.4856H0.862676C0.687076 9.4856 0.536276 9.6096 0.502276 9.7816L0.00707595 12.2928C-0.0377241 12.5196 0.135876 12.7312 0.367476 12.7312H2.62828C3.43588 12.7312 4.06828 12.5712 4.52548 12.2512C4.98268 11.9312 5.21108 11.4592 5.21108 10.834C5.21108 10.3772 5.04308 10.038 4.70828 9.8172ZM16.7439 10.8344C16.7439 10.3772 16.5763 10.0384 16.2411 9.8172C15.9059 9.5964 15.4487 9.4856 14.8695 9.4856H12.0935L11.4535 12.7312H14.1607C14.9683 12.7312 15.6007 12.5712 16.0579 12.2512C16.5151 11.9312 16.7439 11.4592 16.7439 10.8344ZM17.2243 4.5256C17.2243 3.6876 16.5919 3.2684 15.3271 3.2684H13.3511L12.7339 6.354H14.7555C15.5631 6.354 16.1763 6.198 16.5955 5.8856C17.0143 5.5736 17.2243 5.12 17.2243 4.5256ZM20.6871 9.0172C21.0603 9.5584 21.2471 10.1944 21.2471 10.9256C21.2471 12.5868 20.5691 13.8476 19.2127 14.7084C17.8563 15.5696 16.0887 16 13.9099 16H5.12228C5.03748 16 4.97348 15.9224 4.98988 15.8392C5.00028 15.7864 5.04068 15.7444 5.09308 15.7332C6.07748 15.5196 6.93948 15.1784 7.67948 14.7088C9.03548 13.848 9.71388 12.5872 9.71388 10.926C9.71388 10.1944 9.52708 9.5584 9.15388 9.0176C8.86308 8.5972 8.47868 8.2476 7.99908 7.97C7.83148 7.8728 7.83668 7.6304 8.00868 7.5412C8.69788 7.1832 9.25108 6.7232 9.66828 6.1608C10.1711 5.4828 10.4227 4.6792 10.4227 3.7492C10.4227 2.5456 9.94628 1.62 8.99428 0.972C8.75428 0.8088 8.48708 0.666 8.19348 0.544C8.06948 0.4924 7.99908 0.3608 8.02468 0.2292C8.04988 0.096 8.16628 0 8.30148 0H16.4011C18.1991 0 19.5743 0.324 20.5267 0.9716C21.4787 1.6196 21.9551 2.5452 21.9551 3.7488C21.9551 4.6784 21.7035 5.4824 21.2007 6.1604C20.6979 6.8384 19.9967 7.3684 19.0979 7.7492C19.7839 8.0536 20.3135 8.4764 20.6871 9.0172Z" fill="#FF9E65"/>
<path d="M35.7773 8.9346C35.9789 9.227 36.0797 9.583 36.0797 10.003C36.0797 10.9006 35.7257 11.5798 35.0177 12.0406C34.3093 12.5018 33.3669 12.7322 32.1897 12.7322H27.6577L29.3865 4.0874H33.5609C34.4913 4.0874 35.2073 4.2582 35.7097 4.5998C36.2117 4.9414 36.4633 5.4294 36.4633 6.0634C36.4633 6.5902 36.3253 7.041 36.0497 7.4158C35.7737 7.7906 35.3969 8.0766 34.9197 8.2742C35.2897 8.4218 35.5753 8.6422 35.7773 8.9346ZM33.6225 10.9042C33.9353 10.6902 34.0917 10.3814 34.0917 9.9778C34.0917 9.385 33.6597 9.0886 32.7949 9.0886H30.3745L29.9549 11.225H32.3137C32.8733 11.2254 33.3093 11.1186 33.6225 10.9042ZM31.0657 5.5938L30.6585 7.6314H32.6961C33.2229 7.6314 33.6329 7.5266 33.9249 7.3166C34.2169 7.1066 34.3633 6.8042 34.3633 6.409C34.3633 5.8658 33.9393 5.5938 33.0913 5.5938H31.0657Z" fill="#FF9E65"/>
<path d="M38.3035 6.0875H40.2179L38.8963 12.7319H36.9819L38.3035 6.0875ZM38.7787 4.8711C38.5687 4.6779 38.4639 4.4411 38.4639 4.1611C38.4639 3.8319 38.5811 3.5579 38.8155 3.3399C39.0503 3.1219 39.3567 3.0127 39.7359 3.0127C40.0731 3.0127 40.3471 3.1055 40.5571 3.2907C40.7671 3.4759 40.8719 3.7043 40.8719 3.9759C40.8719 4.3299 40.7527 4.6163 40.5139 4.8343C40.2751 5.0527 39.9663 5.1615 39.5875 5.1615C39.2579 5.1615 38.9887 5.0647 38.7787 4.8711Z" fill="#FF9E65"/>
<path d="M43.3046 10.3852C43.2878 10.4512 43.2798 10.5416 43.2798 10.6568C43.2798 11.0848 43.5146 11.2988 43.9838 11.2988C44.239 11.2988 44.4982 11.2208 44.7622 11.064L45.0462 12.4348C44.6182 12.6984 44.0662 12.83 43.3914 12.83C42.7658 12.83 42.2634 12.6656 41.8846 12.336C41.5062 12.0068 41.3166 11.554 41.3166 10.9776C41.3166 10.8132 41.337 10.6196 41.3782 10.3972L41.909 7.71719H40.8838L41.1802 6.23519H42.2054L42.5262 4.61719H44.453L44.1322 6.23519H45.787L45.491 7.71719H43.8362L43.3046 10.3852Z" fill="#FF9E65"/>
<path d="M47.565 12.4599C47.0546 12.2131 46.6614 11.8651 46.3858 11.4163C46.1098 10.9675 45.9722 10.4467 45.9722 9.85388C45.9722 9.12108 46.145 8.46268 46.4906 7.87788C46.8362 7.29348 47.3182 6.83228 47.9354 6.49468C48.553 6.15708 49.2486 5.98828 50.0226 5.98828C50.731 5.98828 51.3418 6.13468 51.8566 6.42668C52.371 6.71908 52.7558 7.13268 53.011 7.66788L51.381 8.48308C51.093 7.88228 50.5986 7.58148 49.8994 7.58148C49.5206 7.58148 49.181 7.67428 48.8802 7.85948C48.5798 8.04468 48.345 8.30228 48.1762 8.63148C48.0074 8.96068 47.923 9.33548 47.923 9.75548C47.923 10.2083 48.059 10.5687 48.3306 10.8363C48.6022 11.1039 48.981 11.2375 49.4666 11.2375C50.175 11.2375 50.7182 10.9411 51.0966 10.3483L52.517 11.2375C52.1958 11.7399 51.7574 12.1311 51.2018 12.4107C50.6462 12.6907 50.0302 12.8307 49.3554 12.8307C48.6722 12.8307 48.0754 12.7071 47.565 12.4599Z" fill="#FF9E65"/>
<path d="M54.7714 12.4599C54.265 12.2131 53.8738 11.8651 53.5982 11.4163C53.3226 10.9675 53.1846 10.4467 53.1846 9.85388C53.1846 9.12108 53.3574 8.46268 53.7034 7.87788C54.049 7.29348 54.5266 6.83228 55.1358 6.49468C55.745 6.15708 56.4326 5.98828 57.1982 5.98828C57.8734 5.98828 58.4618 6.11188 58.9642 6.35868C59.4662 6.60588 59.8554 6.95348 60.131 7.40228C60.4066 7.85108 60.5446 8.37188 60.5446 8.96468C60.5446 9.69748 60.3738 10.3563 60.0322 10.9407C59.6906 11.5255 59.213 11.9863 58.5998 12.3239C57.9862 12.6615 57.297 12.8303 56.531 12.8303C55.8646 12.8307 55.2778 12.7071 54.7714 12.4599ZM57.655 10.9595C57.9514 10.7743 58.1818 10.5171 58.3466 10.1875C58.5114 9.85828 58.5938 9.47948 58.5938 9.05148C58.5938 8.59868 58.4618 8.24068 58.1986 7.97708C57.935 7.71348 57.5646 7.58188 57.087 7.58188C56.7086 7.58188 56.3706 7.67468 56.0742 7.85988C55.7782 8.04508 55.5474 8.30268 55.3826 8.63188C55.2178 8.96108 55.1358 9.34028 55.1358 9.76788C55.1358 10.2207 55.2694 10.5791 55.537 10.8423C55.8042 11.1059 56.177 11.2375 56.6546 11.2375C57.0254 11.2375 57.3586 11.1447 57.655 10.9595Z" fill="#FF9E65"/>
<path d="M62.4588 6.0875H64.3732L63.0516 12.7319H61.1372L62.4588 6.0875ZM62.9344 4.8711C62.7244 4.6779 62.6196 4.4411 62.6196 4.1611C62.6196 3.8319 62.7368 3.5579 62.9712 3.3399C63.206 3.1219 63.5124 3.0127 63.8916 3.0127C64.2288 3.0127 64.5028 3.1055 64.7128 3.2907C64.9228 3.4759 65.0276 3.7043 65.0276 3.9759C65.0276 4.3299 64.9084 4.6163 64.6696 4.8343C64.4308 5.0527 64.122 5.1615 63.7432 5.1615C63.4136 5.1615 63.1444 5.0647 62.9344 4.8711Z" fill="#FF9E65"/>
<path d="M71.7954 6.57566C72.2314 6.96686 72.4498 7.52486 72.4498 8.24925C72.4498 8.52085 72.421 8.78845 72.3634 9.05205L71.6226 12.7324H69.6958L70.4122 9.17565C70.445 9.03565 70.4614 8.88365 70.4614 8.71885C70.4614 8.37285 70.3666 8.10965 70.1774 7.92845C69.9882 7.74765 69.7042 7.65686 69.3254 7.65686C68.8314 7.65686 68.4214 7.79885 68.0966 8.08285C67.7714 8.36685 67.551 8.79285 67.4358 9.36085L66.7686 12.7324H64.8418L66.1634 6.08806H67.991L67.843 6.80446C68.4358 6.26126 69.1646 5.98926 70.029 5.98926C70.7702 5.98886 71.359 6.18446 71.7954 6.57566Z" fill="#FF9E65"/>
<path d="M81.6195 8.9346C81.8211 9.227 81.9223 9.583 81.9223 10.003C81.9223 10.9006 81.5683 11.5798 80.8599 12.0406C80.1515 12.5018 79.2095 12.7322 78.0319 12.7322H73.4995L75.2283 4.0874H79.4027C80.3331 4.0874 81.0491 4.2582 81.5519 4.5998C82.0539 4.9414 82.3051 5.4294 82.3051 6.0634C82.3051 6.5902 82.1671 7.041 81.8915 7.4158C81.6159 7.7906 81.2391 8.0766 80.7615 8.2742C81.1315 8.4218 81.4179 8.6422 81.6195 8.9346ZM79.4647 10.9042C79.7771 10.6902 79.9339 10.3814 79.9339 9.9778C79.9339 9.385 79.5019 9.0886 78.6375 9.0886H76.2167L75.7971 11.225H78.1559C78.7151 11.2254 79.1515 11.1186 79.4647 10.9042ZM76.9083 5.5938L76.5007 7.6314H78.5387C79.0655 7.6314 79.4751 7.5266 79.7675 7.3166C80.0595 7.1066 80.2055 6.8042 80.2055 6.409C80.2055 5.8658 79.7815 5.5938 78.9335 5.5938H76.9083Z" fill="#FF9E65"/>
<path d="M84.5336 12.4599C84.0272 12.2131 83.636 11.8651 83.3604 11.4163C83.0848 10.9675 82.9468 10.4467 82.9468 9.85388C82.9468 9.12108 83.1196 8.46268 83.4656 7.87788C83.8112 7.29348 84.2888 6.83228 84.898 6.49468C85.5072 6.15708 86.1948 5.98828 86.9604 5.98828C87.6356 5.98828 88.224 6.11188 88.7264 6.35868C89.2284 6.60588 89.6176 6.95348 89.8932 7.40228C90.1688 7.85108 90.3068 8.37188 90.3068 8.96468C90.3068 9.69748 90.136 10.3563 89.7944 10.9407C89.4528 11.5255 88.9752 11.9863 88.362 12.3239C87.7484 12.6615 87.0592 12.8303 86.2932 12.8303C85.6268 12.8307 85.0404 12.7071 84.5336 12.4599ZM87.4176 10.9595C87.714 10.7743 87.9444 10.5171 88.1092 10.1875C88.274 9.85828 88.3564 9.47948 88.3564 9.05148C88.3564 8.59868 88.2244 8.24068 87.9612 7.97708C87.6976 7.71348 87.3272 7.58188 86.8496 7.58188C86.4712 7.58188 86.1332 7.67468 85.8368 7.85988C85.5408 8.04508 85.31 8.30268 85.1452 8.63188C84.9804 8.96108 84.8984 9.34028 84.8984 9.76788C84.8984 10.2207 85.032 10.5791 85.2996 10.8423C85.5668 11.1059 85.9396 11.2375 86.4172 11.2375C86.7876 11.2375 87.1208 11.1447 87.4176 10.9595Z" fill="#FF9E65"/>
<path d="M93.5184 10.3852C93.5016 10.4512 93.4936 10.5416 93.4936 10.6568C93.4936 11.0848 93.7284 11.2988 94.1976 11.2988C94.4528 11.2988 94.712 11.2208 94.976 11.064L95.26 12.4348C94.832 12.6984 94.28 12.83 93.6052 12.83C92.9796 12.83 92.4772 12.6656 92.0985 12.336C91.7201 12.0068 91.5305 11.554 91.5305 10.9776C91.5305 10.8132 91.5509 10.6196 91.5921 10.3972L92.1229 7.71719H91.0977L91.3941 6.23519H92.4193L92.74 4.61719H94.6668L94.346 6.23519H96.0004L95.7044 7.71719H94.0496L93.5184 10.3852Z" fill="#FF9E65"/>
</svg>

<svg width="96" height="16" fill="none" xmlns="http://www.w3.org/2000/svg"><path d="M5.691 4.526c0 .594-.21 1.048-.628 1.36-.42.312-1.033.468-1.84.468H1.649a.367.367 0 01-.36-.44l.47-2.35a.367.367 0 01.36-.295h1.675c1.265 0 1.897.419 1.897 1.257zm-.983 5.291c-.335-.22-.792-.331-1.371-.331H.863a.367.367 0 00-.36.296l-.496 2.51a.367.367 0 00.36.44h2.261c.808 0 1.44-.16 1.897-.48.458-.32.686-.793.686-1.418 0-.457-.168-.796-.503-1.017zm12.036 1.017c0-.457-.168-.796-.503-1.017-.335-.22-.792-.331-1.371-.331h-2.776l-.64 3.245h2.707c.807 0 1.44-.16 1.897-.48.457-.32.686-.792.686-1.417zm.48-6.308c0-.838-.632-1.258-1.897-1.258h-1.976l-.617 3.086h2.021c.808 0 1.421-.156 1.84-.468.42-.312.63-.766.63-1.36zm3.463 4.491c.373.541.56 1.177.56 1.909 0 1.66-.678 2.922-2.034 3.782C17.856 15.57 16.089 16 13.91 16H5.122a.135.135 0 01-.029-.267c.984-.213 1.846-.555 2.586-1.024 1.356-.861 2.035-2.122 2.035-3.783 0-.732-.187-1.368-.56-1.908-.29-.42-.675-.77-1.155-1.048a.244.244 0 01.01-.429c.689-.358 1.242-.818 1.66-1.38.502-.678.754-1.482.754-2.412 0-1.203-.477-2.129-1.429-2.777a4.47 4.47 0 00-.8-.428A.283.283 0 018.3 0h8.1c1.798 0 3.173.324 4.126.972.952.648 1.428 1.573 1.428 2.777 0 .93-.252 1.733-.754 2.411-.503.678-1.204 1.208-2.103 1.59.686.304 1.216.726 1.59 1.267zM35.777 8.935c.202.292.303.648.303 1.068 0 .898-.354 1.577-1.062 2.038-.709.46-1.651.691-2.828.691h-4.532l1.729-8.645h4.174c.93 0 1.646.171 2.149.513.502.341.753.83.753 1.463 0 .527-.138.978-.413 1.353-.276.375-.653.66-1.13.858.37.148.655.368.857.66zm-2.154 1.97c.312-.215.469-.524.469-.927 0-.593-.432-.89-1.297-.89h-2.42l-.42 2.137h2.359c.56 0 .995-.106 1.309-.32zm-2.557-5.311l-.407 2.037h2.037c.527 0 .937-.104 1.229-.314.292-.21.438-.513.438-.908 0-.543-.424-.815-1.272-.815h-2.025zM38.303 6.088h1.915l-1.322 6.644h-1.914l1.322-6.644zm.476-1.217a.928.928 0 01-.315-.71c0-.33.117-.603.352-.821.234-.218.54-.327.92-.327.337 0 .611.093.821.278.21.185.315.413.315.685 0 .354-.12.64-.358.858-.239.219-.548.328-.927.328-.33 0-.598-.097-.808-.29zM43.305 10.385a1.153 1.153 0 00-.025.272c0 .428.235.642.704.642.255 0 .514-.078.778-.235l.284 1.37c-.428.264-.98.396-1.655.396-.625 0-1.128-.164-1.506-.494-.379-.33-.568-.782-.568-1.358 0-.165.02-.358.061-.58l.531-2.68h-1.025l.296-1.483h1.025l.321-1.618h1.927l-.32 1.618h1.654l-.296 1.482h-1.655l-.531 2.668zM47.565 12.46a2.75 2.75 0 01-1.18-1.044c-.275-.449-.413-.97-.413-1.562 0-.733.173-1.391.519-1.976a3.711 3.711 0 011.444-1.383c.618-.338 1.314-.507 2.088-.507.708 0 1.319.147 1.834.439.514.292.899.706 1.154 1.24l-1.63.816c-.288-.6-.782-.902-1.482-.902-.378 0-.718.093-1.019.278a1.91 1.91 0 00-.704.772c-.169.33-.253.704-.253 1.124 0 .453.136.814.408 1.081.271.268.65.402 1.136.402.708 0 1.251-.297 1.63-.89l1.42.89c-.321.502-.76.893-1.315 1.173-.556.28-1.172.42-1.847.42-.683 0-1.28-.124-1.79-.371zM54.771 12.46a2.757 2.757 0 01-1.173-1.044c-.275-.449-.413-.97-.413-1.562 0-.733.172-1.391.518-1.976a3.732 3.732 0 011.433-1.383c.609-.338 1.297-.507 2.062-.507.675 0 1.264.124 1.766.37.502.248.891.595 1.167 1.044.276.45.414.97.414 1.563 0 .732-.171 1.391-.513 1.976a3.675 3.675 0 01-1.432 1.383c-.614.338-1.303.506-2.069.506-.666 0-1.253-.123-1.76-.37zm2.884-1.5c.296-.186.527-.443.692-.773.164-.329.247-.708.247-1.136 0-.452-.132-.81-.395-1.074-.264-.264-.634-.395-1.112-.395-.378 0-.716.093-1.013.278a1.884 1.884 0 00-.691.772c-.165.33-.247.708-.247 1.136 0 .453.133.811.401 1.074.267.264.64.396 1.118.396.37 0 .704-.093 1-.278zM62.459 6.088h1.914l-1.321 6.644h-1.915l1.322-6.644zm.475-1.217a.928.928 0 01-.314-.71c0-.33.117-.603.351-.821.235-.218.541-.327.92-.327.338 0 .612.093.822.278.21.185.315.413.315.685 0 .354-.12.64-.358.858-.24.219-.548.328-.927.328-.33 0-.599-.097-.809-.29zM71.795 6.576c.436.39.655.949.655 1.673 0 .272-.029.54-.087.803l-.74 3.68h-1.927l.716-3.556a2 2 0 00.05-.457c0-.346-.095-.61-.285-.79-.189-.181-.473-.272-.852-.272-.494 0-.904.142-1.228.426-.326.284-.546.71-.661 1.278l-.667 3.371h-1.927l1.321-6.644h1.828l-.148.716c.593-.543 1.322-.815 2.186-.815.741 0 1.33.195 1.766.587zM81.62 8.935c.201.292.302.648.302 1.068 0 .898-.354 1.577-1.062 2.038-.709.46-1.65.691-2.828.691H73.5l1.728-8.645h4.175c.93 0 1.646.171 2.149.513.502.341.753.83.753 1.463 0 .527-.138.978-.414 1.353-.275.375-.652.66-1.13.858.37.148.657.368.859.66zm-2.155 1.97c.312-.215.469-.524.469-.927 0-.593-.432-.89-1.296-.89h-2.421l-.42 2.137h2.359c.56 0 .995-.106 1.309-.32zm-2.557-5.311l-.407 2.037h2.038c.526 0 .936-.104 1.228-.314.293-.21.439-.513.439-.908 0-.543-.425-.815-1.273-.815h-2.025zM84.534 12.46a2.757 2.757 0 01-1.174-1.044c-.275-.449-.413-.97-.413-1.562 0-.733.173-1.391.519-1.976a3.732 3.732 0 011.432-1.383c.61-.338 1.297-.507 2.062-.507.676 0 1.264.124 1.766.37.502.248.892.595 1.167 1.044.276.45.414.97.414 1.563 0 .732-.171 1.391-.513 1.976a3.675 3.675 0 01-1.432 1.383c-.614.338-1.303.506-2.069.506-.666 0-1.253-.123-1.76-.37zm2.884-1.5c.296-.186.526-.443.691-.773.165-.329.247-.708.247-1.136 0-.452-.132-.81-.395-1.074s-.634-.395-1.111-.395c-.379 0-.717.093-1.013.278a1.884 1.884 0 00-.692.772c-.165.33-.247.708-.247 1.136 0 .453.134.811.402 1.074.267.264.64.396 1.117.396.37 0 .704-.093 1-.278zM93.518 10.385a1.153 1.153 0 00-.024.272c0 .428.234.642.704.642.255 0 .514-.078.778-.235l.284 1.37c-.428.264-.98.396-1.655.396-.625 0-1.128-.164-1.507-.494-.378-.33-.567-.782-.567-1.358 0-.165.02-.358.061-.58l.53-2.68h-1.024l.296-1.483h1.025l.321-1.618h1.927l-.321 1.618H96l-.296 1.482H94.05l-.532 2.668z" fill="#FF9E65"/></svg>
